svgs/sharp-solid/code-pull-request-draft.svg

<svg xmlns="http://www.w3.org/2000/svg" viewBox="0 0 448 512"><!--! Font Awesome Pro 6.6.0 by @fontawesome - https://fontawesome.com License - https://fontawesome.com/license (Commercial License) Copyright 2024 Fonticons, Inc. --><path d="M56 56l0 48 48 0 0-48L56 56zM0 0L56 0l48 0 56 0 0 56 0 48 0 56-48 0 0 192 48 0 0 56 0 48 0 56-56 0-48 0L0 512l0-56 0-48 0-56 48 0 0-192L0 160l0-56L0 56 0 0zM56 408l0 48 48 0 0-48-48 0zm336 0l-48 0 0 48 48 0 0-48zm-48-56l48 0 56 0 0 56 0 48 0 56-56 0-48 0-56 0 0-56 0-48 0-56 56 0zM320 192l96 0 0 96-96 0 0-96zM416 32l0 96-96 0 0-96 96 0z"/></svg>

<svg xmlns="http://www.w3.org/2000/svg" viewBox="0 0 448 512"><!--! Font Awesome Pro 6.4.0 by @fontawesome - https://fontawesome.com License - https://fontawesome.com/license (Commercial License) Copyright 2023 Fonticons, Inc. --><path d="M56 56v48h48V56H56zM0 0H56h48 56V56v48 56H112V352h48v56 48 56H104 56 0V456 408 352H48V160H0V104 56 0zM56 408v48h48V408H56zm336 0H344v48h48V408zm-48-56h48 56v56 48 56H392 344 288V456 408 352h56zM320 192h96v96H320V192zM416 32v96H320V32h96z"/></svg>
